!!!COM: Michael Praetorius
!!!OTL: Puer nobis nascitur
!!!system-decoration: [(s1,s2,s3,s4,s5[s6,s7,s8,s9])]
**kern	**kern	**kern	**kern	**kern	**kern	**kern	**kern	**kern	**text	**text	**kern	**kern	**kern	**kern	**kern	**kern	**kern	**kern	**kern	**text	**text	**kern	**kern	**kern	**kern	**kern	**kern	**kern	**kern	**kern	**text	**text	**kern	**kern	**kern	**kern	**kern	**kern	**kern	**kern	**kern	**text	**text	**kern	**kern	**kern	**kern	**kern	**kern	**kern	**kern	**kern	**kern	**kern	**kern	**kern	**kern	**kern	**kern	**kern	**kern	**dynam	**kern	**kern	**kern	**kern	**kern	**kern	**kern	**kern	**kern	**dynam	**kern	**kern	**kern	**kern	**kern	**kern	**kern	**kern	**kern	**dynam	**kern	**kern	**kern	**kern	**kern	**kern	**kern	**kern	**kern	**dynam
*part9	*part9	*part9	*part9	*part9	*part9	*part9	*part9	*part9	*part9	*part9	*part8	*part8	*part8	*part8	*part8	*part8	*part8	*part8	*part8	*part8	*part8	*part7	*part7	*part7	*part7	*part7	*part7	*part7	*part7	*part7	*part7	*part7	*part6	*part6	*part6	*part6	*part6	*part6	*part6	*part6	*part6	*part6	*part6	*part5	*part5	*part5	*part5	*part5	*part5	*part5	*part5	*part5	*part4	*part4	*part4	*part4	*part4	*part4	*part4	*part4	*part4	*part4	*part3	*part3	*part3	*part3	*part3	*part3	*part3	*part3	*part3	*part3	*part2	*part2	*part2	*part2	*part2	*part2	*part2	*part2	*part2	*part2	*part1	*part1	*part1	*part1	*part1	*part1	*part1	*part1	*part1	*part1
*staff81	*staff80	*staff79	*staff78	*staff77	*staff76	*staff75	*staff74	*staff73	*staff73	*staff73	*staff72	*staff71	*staff70	*staff69	*staff68	*staff67	*staff66	*staff65	*staff64	*staff64	*staff64	*staff63	*staff62	*staff61	*staff60	*staff59	*staff58	*staff57	*staff56	*staff55	*staff55	*staff55	*staff54	*staff53	*staff52	*staff51	*staff50	*staff49	*staff48	*staff47	*staff46	*staff46	*staff46	*staff45	*staff44	*staff43	*staff42	*staff41	*staff40	*staff39	*staff38	*staff37	*staff36	*staff35	*staff34	*staff33	*staff32	*staff31	*staff30	*staff29	*staff28	*	*staff27	*staff26	*staff25	*staff24	*staff23	*staff22	*staff21	*staff20	*staff19	*	*staff18	*staff17	*staff16	*staff15	*staff14	*staff13	*staff12	*staff11	*staff10	*	*staff9	*staff8	*staff7	*staff6	*staff5	*staff4	*staff3	*staff2	*staff1	*
*I'B	*	*	*	*	*	*	*	*	*	*	*I'T	*	*	*	*	*	*	*	*	*	*	*I'A	*	*	*	*	*	*	*	*	*	*	*I'S	*	*	*	*	*	*	*	*	*	*	*I'Timp	*	*	*	*	*	*	*	*	*I'B. Tbn.	*	*	*	*	*	*	*	*	*	*I'Tbn.	*	*	*	*	*	*	*	*	*	*I'C Tpt. 2	*	*	*	*	*	*	*	*	*	*I'C Tpt. 1	*	*	*	*	*	*	*	*	*
*I"Bass	*	*	*	*	*	*	*	*	*	*	*I"Tenor	*	*	*	*	*	*	*	*	*	*	*I"Alto	*	*	*	*	*	*	*	*	*	*	*I"Soprano	*	*	*	*	*	*	*	*	*	*	*I"Timpani	*	*	*	*	*	*	*	*	*I"Bass Trombone	*	*	*	*	*	*	*	*	*	*I"Trombone	*	*	*	*	*	*	*	*	*	*I"Trumpet in C 2	*	*	*	*	*	*	*	*	*	*I"Trumpet in C 1	*	*	*	*	*	*	*	*	*
*clefF4	*	*	*clefGv2	*	*	*clefG2	*	*	*clefG2	*	*	*clefF4	*clefF4	*	*clefF4	*	*clefG2	*	*clefG2	*
*k[b-]	*	*	*k[b-]	*	*	*k[b-]	*	*	*k[b-]	*	*	*k[b-]	*k[b-]	*	*k[b-]	*	*k[b-]	*	*k[b-]	*
*M6/4	*	*	*M6/4	*	*	*M6/4	*	*	*M6/4	*	*	*M6/4	*M6/4	*	*M6/4	*	*M6/4	*	*M6/4	*
!	!	!	!	!	!	!	!	!	!	!	!	!	!	!	!	!	!	!	!LO:TX:a:i:t=Allegro moderato	!
*MM140	*	*	*MM140	*	*	*MM140	*	*	*MM140	*	*	*MM140	*MM140	*	*MM140	*	*MM140	*	*MM140	*
!	!	!	!	!	!	!	!	!	!	!	!	!	!	!	!	!	!	!	!LO:TX:a:i:t=Intro.	!
1.r	.	.	1.r	.	.	1.r	.	.	1.r	.	.	2C	4E	mf	4c	mf	4g	mf	2cc	mf
.	.	.	.	.	.	.	.	.	.	.	.	.	4F	.	4A	.	4a	.	.	.
.	.	.	.	.	.	.	.	.	.	.	.	4r	8GL	.	8dL	.	8gL	.	8b-yL	.
.	.	.	.	.	.	.	.	.	.	.	.	.	8GJ	.	8dJ	.	8gJ	.	8b-yJ	.
.	.	.	.	.	.	.	.	.	.	.	.	4r	8DL	.	8dL	.	8fL	.	8aL	.
.	.	.	.	.	.	.	.	.	.	.	.	.	8DJ	.	8dJ	.	8fJ	.	8ccJ	.
.	.	.	.	.	.	.	.	.	.	.	.	4r	4E	.	4G	.	2c	.	8b-yL	.
.	.	.	.	.	.	.	.	.	.	.	.	.	.	.	.	.	.	.	8gJ	.
.	.	.	.	.	.	.	.	.	.	.	.	4FF	4F	.	4c	.	.	.	8aL	.
.	.	.	.	.	.	.	.	.	.	.	.	.	.	.	.	.	.	.	8gJ	.
=2	=2	=2	=2	=2	=2	=2	=2	=2	=2	=2	=2	=2	=2	=2	=2	=2	=2	=2	=2	=2
1.r	.	.	1.r	.	.	1.r	.	.	1.r	.	.	2FF	2BB-y	.	2B-y	.	2d	.	8fL	.
.	.	.	.	.	.	.	.	.	.	.	.	.	.	.	.	.	.	.	8eJ	.
.	.	.	.	.	.	.	.	.	.	.	.	.	.	.	.	.	.	.	8dL	.
.	.	.	.	.	.	.	.	.	.	.	.	.	.	.	.	.	.	.	8gJ	.
.	.	.	.	.	.	.	.	.	.	.	.	4C	4C	.	4G	.	4c	.	4e	.
.	.	.	.	.	.	.	.	.	.	.	.	2.FF	2.F	.	2.A	.	2.c	.	2.f	.
=3	=3	=3	=3	=3	=3	=3	=3	=3	=3	=3	=3	=3	=3	=3	=3	=3	=3	=3	=3	=3
!	!	!	!	!	!	!	!	!	!	!	!	!	!	!	!	!	!	!	!LO:TX:a:iB:t=ยง	!
!	!	!	!	!	!	!	!	!	!	!	!	!	!	!	!	!	!	!	!LO:TX:a:iB:t=V.1-3	!
2F	1~Pu-	3~Hinc	2A	1~Pu-	3~Hinc	2c	1~Pu-	3~Hinc	2f	1~Pu-	3~Hinc	1.r	2F	p	2A	p	2c	p	2f	p
4E	er	Her-	4G	er	Her-	4c	er	Her-	4g	er	Her-	.	4r	.	4r	.	4r	.	4r	.
2D	no-	od-	2d	no-	od-	2f	no-	od-	2a	no-	od-	.	2.r	.	2.r	.	2.r	.	2.r	.
4G	.	.	4d	bis	es	4g	bis	es	4b-y	bis	es	.	.	.	.	.	.	.	.	.
=4	=4	=4	=4	=4	=4	=4	=4	=4	=4	=4	=4	=4	=4	=4	=4	=4	=4	=4	=4	=4
(>4A	na-	ti-	(>4c	na-	ti-	(<4e	na-	ti-	(<4a	na-	ti-	1.r	2.r	.	2.r	.	2.r	.	2.r	.
4B-y)	.	.	4d)	.	.	4d)	.	.	4g)	.	.	.	.	.	.	.	.	.	.	.
4A	sci-	mu-	4c#	sci-	mu-	4e	sci-	mu-	4a	sci-	mu-	.	.	.	.	.	.	.	.	.
2.D	tur,	it	2.d	tur,	it	2.a	.	.	2.f	tur,	it	.	4r	.	4r	.	4r	.	4r	.
.	.	.	.	.	.	.	.	.	.	.	.	.	4D'>	.	4A'>	.	4d'<	.	4f'<	.
.	.	.	.	.	.	.	.	.	.	.	.	.	4d'>	.	4d'>	.	4f'<	.	4a'<	.
=5	=5	=5	=5	=5	=5	=5	=5	=5	=5	=5	=5	=5	=5	=5	=5	=5	=5	=5	=5	=5
2A	re-	Mag-	2e	re-	Mag-	2a	re-	Mag-	2cc	re-	Mag-	1.r	2A	.	2e	.	2a	.	2cc	.
4G	ctor	no	4g	ctor	no	4b-y	ctor	no	4dd	ctor	no	.	4r	.	4r	.	4r	.	4r	.
2c	An-	cum	(>4e	An-	cum 	(<4g	An-	cum 	(>4cc	An-	cum 	.	2.r	.	2.r	.	2.r	.	2.r	.
.	.	.	4f)	.	.	8aL	.	.	4dd)	.	.	.	.	.	.	.	.	.	.	.
.	.	.	.	.	.	8b-yJ)	.	.	.	.	.	.	.	.	.	.	.	.	.	.
4c	ge-	tre-	4g	ge-	tre-	4cc	.	.	4ee	ge-	tre-	.	.	.	.	.	.	.	.	.
=6	=6	=6	=6	=6	=6	=6	=6	=6	=6	=6	=6	=6	=6	=6	=6	=6	=6	=6	=6	=6
(>4A	lo-	mo-	(>4c	lo-	mo-	(>4cc	lo-	mo-	(>4ff	lo-	mo-	1.r	2.r	.	2.r	.	2.r	.	2.r	.
2G)	.	.	4d	.	.	4b-y	.	.	4dd	.	.	.	.	.	.	.	.	.	.	.
.	.	.	4B-y)	.	.	4g)	.	.	4ee)	.	.	.	.	.	.	.	.	.	.	.
2.F	rum,	re,	2.c	rum,	re,	2.a	rum,	re,	2.ff	rum,	re,	.	4r	.	4r	.	4r	.	4r	.
.	.	.	.	.	.	.	.	.	.	.	.	.	4A	.	4c	.	4f	.	4a	.
.	.	.	.	.	.	.	.	.	.	.	.	.	4c	.	4f	.	4a	.	4cc	.
=7:|!	=7:|!	=7:|!	=7:|!	=7:|!	=7:|!	=7:|!	=7:|!	=7:|!	=7:|!	=7:|!	=7:|!	=7:|!	=7:|!	=7:|!	=7:|!	=7:|!	=7:|!	=7:|!	=7:|!	=7:|!
2B-y	In	In-	2d	In	In-	2b-y	In	In-	2ff	In	In-	1.r	2B-y	.	2f	.	2b-y	.	2ff	.
4G	hoc	fan-	4d	hoc	fan-	4b-y	hoc	fan-	4gg	hoc	fan-	.	4r	.	4r	.	4r	.	4r	.
2d	mun-	tes	2f	mun-	tes	2a	mun-	tes	2ff	mun-	tes	.	2.r	.	2.r	.	2.r	.	2.r	.
4A	do	et	4a	do	et	4cc	do	et	4ee	do	et	.	.	.	.	.	.	.	.	.
=8	=8	=8	=8	=8	=8	=8	=8	=8	=8	=8	=8	=8	=8	=8	=8	=8	=8	=8	=8	=8
(>4B-y	pa-	pu-	(>4f	pa-	pu-	(>4b-y	pa-	pu-	(>4dd	pa-	pu-	1.r	2.r	.	2.r	.	2.r	.	2.r	.
4c)	.	.	4e)	.	.	4g)	.	.	4cc)	.	.	.	.	.	.	.	.	.	.	.
4G	sci-	e-	4d	sci-	e-	4b-y	sci-	e-	4dd	sci-	e-	.	.	.	.	.	.	.	.	.
2C	tur	ros	2e	tur	ros	2g	tur	ros	2cc	tur	ros	.	4r	.	4r	.	4r	.	4r	.
.	.	.	.	.	.	.	.	.	.	.	.	.	4C	.	4e	.	4g	.	4cc	.
4F	Do-	Oc-	4c	Do-	Oc-	4f	Do-	Oc-	4a	Do-	Oc-	.	4F	.	4c	.	4f	.	4a	.
=9	=9	=9	=9	=9	=9	=9	=9	=9	=9	=9	=9	=9	=9	=9	=9	=9	=9	=9	=9	=9
(>4E	mi-	ci-	(>4c	mi-	ci-	(<4g	mi-	ci-	2cc	mi-	ci-	1.r	4E	.	4c	.	4g	.	4cc	.
4F)	.	.	4A)	.	.	4a)	.	.	.	.	.	.	4r	.	4r	.	4r	.	4r	.
4G	nus	dit	4d	nus	dit	4g	nus	dit	4b-y	nus	dit	.	4r	.	4r	.	4r	.	4r	.
(>4D	.	.	(>4d	.	.	4f	Do-	cum	(<4a	Do-	cum 	.	2.r	.	2.r	.	2.r	.	2.r	.
4E)	.	.	4G)	.	.	2c	mi-	do-	4g)	.	.	.	.	.	.	.	.	.	.	.
4F	mi-	do-	4c	mi-	do-	.	.	.	4a	mi-	do-	.	.	.	.	.	.	.	.	.
=10	=10	=10	=10	=10	=10	=10	=10	=10	=10	=10	=10	=10	=10	=10	=10	=10	=10	=10	=10	=10
(<2BB-y	no-	lo-	(>2B-y	no-	lo-	(<2d	no-	lo-	(<4f	no-	lo-	2.r	2.r	.	2.r	.	2.r	.	2.r	.
.	.	.	.	.	.	.	.	.	4d	.	.	.	.	.	.	.	.	.	.	.
4C)	.	.	4G)	.	.	4c)	.	.	4e)	.	.	.	.	.	.	.	.	.	.	.
2.F	rum.	re.	2.A	rum.	re.	2.c	rum.	re.	2.f	rum.	re.	4r	4r	.	4r	.	4r	.	4r	.
.	.	.	.	.	.	.	.	.	.	.	.	4FF	4F	.	4c	.	4f	.	4a	.
.	.	.	.	.	.	.	.	.	.	.	.	4FF	4F	.	4f	.	4a	.	4cc	.
=11	=11	=11	=11	=11	=11	=11	=11	=11	=11	=11	=11	=11	=11	=11	=11	=11	=11	=11	=11	=11
1.r	.	.	1.r	.	.	1.r	.	.	1.r	.	.	4C	4E	.	4c	.	4g	.	8ffL	.
.	.	.	.	.	.	.	.	.	.	.	.	.	.	.	.	.	.	.	8eeJ	.
.	.	.	.	.	.	.	.	.	.	.	.	4r	4F	.	4A	.	4a	.	8ddL	.
.	.	.	.	.	.	.	.	.	.	.	.	.	.	.	.	.	.	.	8ccJ	.
.	.	.	.	.	.	.	.	.	.	.	.	4r	4G	.	4d	.	4g	.	8b-yL	.
.	.	.	.	.	.	.	.	.	.	.	.	.	.	.	.	.	.	.	8gJ	.
.	.	.	.	.	.	.	.	.	.	.	.	4FF	4D	.	4d	.	4f	.	8aL	.
.	.	.	.	.	.	.	.	.	.	.	.	.	.	.	.	.	.	.	8b-yJ	.
.	.	.	.	.	.	.	.	.	.	.	.	2C	4E	.	4G	.	2c	.	8ccL	.
.	.	.	.	.	.	.	.	.	.	.	.	.	.	.	.	.	.	.	8b-yJ	.
.	.	.	.	.	.	.	.	.	.	.	.	.	4F	.	4c	.	.	.	8aL	.
.	.	.	.	.	.	.	.	.	.	.	.	.	.	.	.	.	.	.	8gJ	.
=12	=12	=12	=12	=12	=12	=12	=12	=12	=12	=12	=12	=12	=12	=12	=12	=12	=12	=12	=12	=12
1.r	.	.	1.r	.	.	1.r	.	.	1.r	.	.	4r	2BB-y	.	2B-y	.	2d	.	4f	.
.	.	.	.	.	.	.	.	.	.	.	.	4r	.	.	.	.	.	.	4d	.
.	.	.	.	.	.	.	.	.	.	.	.	4C	4C	.	4G	.	4c	.	4e	.
.	.	.	.	.	.	.	.	.	.	.	.	2.FF	2.F	.	2.A	.	2.c	.	2.f	.
=13	=13	=13	=13	=13	=13	=13	=13	=13	=13	=13	=13	=13	=13	=13	=13	=13	=13	=13	=13	=13
!	!	!	!	!	!	!	!	!	!	!	!	!	!	!	!	!	!	!	!LO:TX:a:iB:t=V.2-4	!
2F	.	.	2A	2~In	4~Qui	2c	2~In	4~Qui	2f	2~In	4~Qui	1.r	2F	.	2A	.	2c	.	2f	.
4E	.	.	4G	prae-	na-	4c	prae-	na-	4g	prae-	na-	.	4r	.	4r	.	4r	.	4r	.
2D	se-	tus	2d	se-	tus	2f	se-	tus	2a	se-	tus	.	2.r	.	2.r	.	2.r	.	2.r	.
4G	pe	ex	4d	pe	ex	4g	pe	ex	4b-y	pe	ex	.	.	.	.	.	.	.	.	.
=14	=14	=14	=14	=14	=14	=14	=14	=14	=14	=14	=14	=14	=14	=14	=14	=14	=14	=14	=14	=14
(>4A	po-	Ma-	(>4c	po-	Ma-	(<4e	po-	Ma-	(<4a	po-	Ma-	1.r	2.r	.	2.r	.	2.r	.	2.r	.
4B-y)	.	.	4d)	.	.	4d)	.	.	4g)	.	.	.	.	.	.	.	.	.	.	.
4A	si-	ri-	4c#	si-	ri-	4e	si-	ri-	4a	si-	ri-	.	.	.	.	.	.	.	.	.
2.D	tum	a	2.d	tum	a	2.a	tum	a	2.f	tum	a	.	4r	.	4r	.	4r	.	4r	.
.	.	.	.	.	.	.	.	.	.	.	.	.	4D'>	.	4A'>	.	4d'<	.	4f'<	.
.	.	.	.	.	.	.	.	.	.	.	.	.	4d'>	.	4d'>	.	4f'<	.	4a'<	.
=15	=15	=15	=15	=15	=15	=15	=15	=15	=15	=15	=15	=15	=15	=15	=15	=15	=15	=15	=15	=15
2A	Fae-	Die	2e	Fae-	Die	2a	Fae-	Die	2cc	Fae-	Die	1.r	2A	.	2e	.	2a	.	2cc	.
4G	no	ho-	4g	no	ho-	4b-y	no	ho-	4dd	no	ho-	.	4r	.	4r	.	4r	.	4r	.
2c	ju-	di-	(>4e	ju-	di-	(<4g	ju-	di-	(>4cc	ju-	di-	.	2.r	.	2.r	.	2.r	.	2.r	.
.	.	.	4f)	.	.	8aL	.	.	4dd)	.	.	.	.	.	.	.	.	.	.	.
.	.	.	.	.	.	8b-yJ)	.	.	.	.	.	.	.	.	.	.	.	.	.	.
4c	men-	er-	4g	men-	er-	4cc	men-	er-	4ee	men-	er-	.	.	.	.	.	.	.	.	.
=16	=16	=16	=16	=16	=16	=16	=16	=16	=16	=16	=16	=16	=16	=16	=16	=16	=16	=16	=16	=16
(>(>4A	to-	na 	(>(>4c	to-	na 	(>(>4cc	to-	na 	(>(>4ff	to-	na 	1.r	2.r	.	2.r	.	2.r	.	2.r	.
2G)	.	.	4d	.	.	4b-y	.	.	4dd	.	.	.	.	.	.	.	.	.	.	.
.	.	.	4B-y)	.	.	4g)	.	.	4ee)	.	.	.	.	.	.	.	.	.	.	.
2.F)	rum,	.	2.c)	rum,	.	2.a)	rum,	.	2.ff)	rum,	.	.	4r	.	4r	.	4r	.	4r	.
.	.	.	.	.	.	.	.	.	.	.	.	.	4A	.	4c	.	4f	.	4a	.
.	.	.	.	.	.	.	.	.	.	.	.	.	4c	.	4f	.	4a	.	4cc	.
=17:|!	=17:|!	=17:|!	=17:|!	=17:|!	=17:|!	=17:|!	=17:|!	=17:|!	=17:|!	=17:|!	=17:|!	=17:|!	=17:|!	=17:|!	=17:|!	=17:|!	=17:|!	=17:|!	=17:|!	=17:|!
2B-y	Cog-	Per-	2d	Cog-	Per-	2b-y	Cog-	Per-	2ff	Cog-	Per-	1.r	2B-y	.	2f	.	2b-y	.	2ff	.
4G	no-	du-	4d	no-	du-	4b-y	no-	du-	4gg	no-	du-	.	4r	.	4r	.	4r	.	4r	.
2d	ve-	cat	2f	ve-	cat	2a	ve-	cat	2ff	ve-	cat	.	2.r	.	2.r	.	2.r	.	2.r	.
4A	runt	nos	4a	runt	nos	4cc	runt	nos	4ee	runt	nos	.	.	.	.	.	.	.	.	.
=18	=18	=18	=18	=18	=18	=18	=18	=18	=18	=18	=18	=18	=18	=18	=18	=18	=18	=18	=18	=18
(>4B-y	Do-	cum	(>4f	Do-	cum	(>4b-y	Do-	cum	(>4dd	Do-	cum	1.r	2.r	.	2.r	.	2.r	.	2.r	.
4c)	gra-	.	4e)	gra-	.	4g)	gra-	.	4cc)	gra-	.	.	.	.	.	.	.	.	.	.
4G	mi-	ti-	4d	mi-	ti-	4b-y	mi-	ti-	4dd	mi-	ti-	.	.	.	.	.	.	.	.	.
2C	num,	a	2e	num,	a	2g	num,	a	2cc	num,	a	.	4r	.	4r	.	4r	.	4r	.
.	.	.	.	.	.	.	.	.	.	.	.	.	4C	.	4e	.	4g	.	4cc	.
4F	Chris-	Ad	4c	Chris-	Ad	4f	Chris-	Ad	4a	Chris-	Ad	.	4F	.	4c	.	4f	.	4a	.
=19	=19	=19	=19	=19	=19	=19	=19	=19	=19	=19	=19	=19	=19	=19	=19	=19	=19	=19	=19	=19
(>4E	tum 	gau-	(>4c	tum 	gau-	(<4g	tum 	gau 	2cc	tum	gau-	1.r	4E	.	4c	.	4g	.	4cc	.
4F)	.	.	4A)	.	.	4a)	.	.	.	.	.	.	4r	.	4r	.	4r	.	4r	.
4G	re-	di-	4d	re-	di-	4g	re-	di-	4b-y	re-	di-	.	4r	.	4r	.	4r	.	4r	.
(>4D	gem 	a 	(>4d	gem 	a 	4f	gem	a	(<4a	gem 	a 	.	2.r	.	2.r	.	2.r	.	2.r	.
4E)	.	.	4G)	.	.	2c	coe-	su-	4g)	.	.	.	.	.	.	.	.	.	.	.
4F	coe-	su-	4c	coe-	su-	.	.	.	4a	coe-	su-	.	.	.	.	.	.	.	.	.
=20	=20	=20	=20	=20	=20	=20	=20	=20	=20	=20	=20	=20	=20	=20	=20	=20	=20	=20	=20	=20
(<2BB-y	lo-	per-	(>2B-y	lo-	per-	(<2d	lo-	per-	(<4f	lo-	per-	2.r	2.r	.	2.r	.	2.r	.	2.r	.
.	.	.	.	.	.	.	.	.	4d	.	.	.	.	.	.	.	.	.	.	.
4C)	.	.	4G)	.	.	4c)	.	.	4e)	.	.	.	.	.	.	.	.	.	.	.
2.F	rum.	na.	2.A	rum.	na.	2.c	rum.	na.	2.f	rum.	na.	4r	4r	.	4r	.	4r	.	4r	.
.	.	.	.	.	.	.	.	.	.	.	.	4FF	4F	.	4c	.	4f	.	4a	.
.	.	.	.	.	.	.	.	.	.	.	.	4FF	4F	.	4f	.	4a	.	4cc	.
=21	=21	=21	=21	=21	=21	=21	=21	=21	=21	=21	=21	=21	=21	=21	=21	=21	=21	=21	=21	=21
1.r	.	.	1.r	.	.	1.r	.	.	1.r	.	.	4C	4E	.	4c	.	4g	.	8ffL	.
.	.	.	.	.	.	.	.	.	.	.	.	.	.	.	.	.	.	.	8eeJ	.
.	.	.	.	.	.	.	.	.	.	.	.	4r	4F	.	4A	.	4a	.	8ddL	.
.	.	.	.	.	.	.	.	.	.	.	.	.	.	.	.	.	.	.	8ccJ	.
.	.	.	.	.	.	.	.	.	.	.	.	4r	4G	.	4d	.	4g	.	8b-yL	.
.	.	.	.	.	.	.	.	.	.	.	.	.	.	.	.	.	.	.	8gJ	.
.	.	.	.	.	.	.	.	.	.	.	.	4FF	4D	.	4d	.	4f	.	8aL	.
.	.	.	.	.	.	.	.	.	.	.	.	.	.	.	.	.	.	.	8b-yJ	.
.	.	.	.	.	.	.	.	.	.	.	.	2C	4E	.	4G	.	2c	.	8ccL	.
.	.	.	.	.	.	.	.	.	.	.	.	.	.	.	.	.	.	.	8b-yJ	.
.	.	.	.	.	.	.	.	.	.	.	.	.	4F	.	4c	.	.	.	8aL	.
.	.	.	.	.	.	.	.	.	.	.	.	.	.	.	.	.	.	.	8gJ	.
=22	=22	=22	=22	=22	=22	=22	=22	=22	=22	=22	=22	=22	=22	=22	=22	=22	=22	=22	=22	=22
!	!	!	!	!	!	!	!	!	!	!	!	!	!	!	!	!	!	!	!LO:TX:iB:t=Dal Segno ยง	!
1.r	.	.	1.r	.	.	1.r	.	.	1.r	.	.	4r	2BB-y	.	2B-y	.	2d	.	4f	.
.	.	.	.	.	.	.	.	.	.	.	.	4r	.	.	.	.	.	.	4d	.
.	.	.	.	.	.	.	.	.	.	.	.	4C	4C	.	4G	.	4c	.	4e	.
.	.	.	.	.	.	.	.	.	.	.	.	2.FF	2.F	.	2.A	.	2.c	.	2.f	.
=23:|!	=23:|!	=23:|!	=23:|!	=23:|!	=23:|!	=23:|!	=23:|!	=23:|!	=23:|!	=23:|!	=23:|!	=23:|!	=23:|!	=23:|!	=23:|!	=23:|!	=23:|!	=23:|!	=23:|!	=23:|!
!	!	!	!	!	!	!	!	!	!	!	!	!	!	!	!	!	!	!	!LO:TX:a:iB:t=V.5	!
2F	5~Nos	.	2A	5~Nos	.	2c	5~Nos	.	2f	5~Nos	.	1.r	2F	.	2A	.	2c	.	2f	.
4E	de	.	4G	de	.	4c	de	.	4g	de	.	.	4r	.	4r	.	4r	.	8ccL	.
.	.	.	.	.	.	.	.	.	.	.	.	.	.	.	.	.	.	.	8b-yJ	.
2D	ta-	.	2d	ta-	.	2f	ta-	.	2a	ta-	.	.	2.r	.	2.r	.	2.r	.	8aL	.
.	.	.	.	.	.	.	.	.	.	.	.	.	.	.	.	.	.	.	8fJ	.
.	.	.	.	.	.	.	.	.	.	.	.	.	.	.	.	.	.	.	8gL	.
.	.	.	.	.	.	.	.	.	.	.	.	.	.	.	.	.	.	.	8aJ	.
4G	li	.	4d	li	.	4g	li	.	4b-y	li	.	.	.	.	.	.	.	.	8b-yL	.
.	.	.	.	.	.	.	.	.	.	.	.	.	.	.	.	.	.	.	8gJ	.
=24	=24	=24	=24	=24	=24	=24	=24	=24	=24	=24	=24	=24	=24	=24	=24	=24	=24	=24	=24	=24
(>4A	gau-	.	(>4c	gau-	.	(<4e	gau-	.	(<4a	gau-	.	1.r	2.r	.	2.r	.	2.r	.	4cc	.
4B-y)	.	.	4d)	.	.	4d)	.	.	4g)	.	.	.	.	.	.	.	.	.	4dd	.
4A	di-	.	4c#	di-	.	4e	di-	.	4a	di-	.	.	.	.	.	.	.	.	8eeL	.
.	.	.	.	.	.	.	.	.	.	.	.	.	.	.	.	.	.	.	8ggJ	.
2.D	o	.	2.d	o	.	2.a	o	.	2.f	o	.	.	4r	.	4r	.	4r	.	4ff'>	.
.	.	.	.	.	.	.	.	.	.	.	.	.	4D'>	.	4A'>	.	4d'<	.	4r	.
.	.	.	.	.	.	.	.	.	.	.	.	.	4d'>	.	4d'>	.	4f'<	.	4r	.
=25	=25	=25	=25	=25	=25	=25	=25	=25	=25	=25	=25	=25	=25	=25	=25	=25	=25	=25	=25	=25
2A	Cant-	.	2e	Cant-	.	2a	Cant-	.	2cc	Cant-	.	1.r	2A	.	2e	.	2a	.	8r	.
.	.	.	.	.	.	.	.	.	.	.	.	.	.	.	.	.	.	.	8cc	.
.	.	.	.	.	.	.	.	.	.	.	.	.	.	.	.	.	.	.	8eeL	.
.	.	.	.	.	.	.	.	.	.	.	.	.	.	.	.	.	.	.	8ccJ	.
4G	e-	.	4g	e-	.	4b-y	e-	.	4dd	e-	.	.	4r	.	4r	.	4r	.	8ddL	.
.	.	.	.	.	.	.	.	.	.	.	.	.	.	.	.	.	.	.	8ggJ	.
2c	mus	.	(>4e	mus 	.	(<4g	mus 	.	(>4cc	mus 	.	.	2.r	.	2.r	.	2.r	.	4ee	.
.	.	.	4f)	.	.	8aL	.	.	4dd)	.	.	.	.	.	.	.	.	.	8ffL	.
.	.	.	.	.	.	8b-yJ)	.	.	.	.	.	.	.	.	.	.	.	.	8ddJ	.
4c	in	.	4g	in	.	4cc	in	.	4ee	in	.	.	.	.	.	.	.	.	8eeL	.
.	.	.	.	.	.	.	.	.	.	.	.	.	.	.	.	.	.	.	8ccJ	.
=26	=26	=26	=26	=26	=26	=26	=26	=26	=26	=26	=26	=26	=26	=26	=26	=26	=26	=26	=26	=26
(>4A	cho-	.	(>4c	cho-	.	(>4cc	cho-	.	(>4ff	cho-	.	1.r	2.r	.	2.r	.	2.r	.	8ffL	.
.	.	.	.	.	.	.	.	.	.	.	.	.	.	.	.	.	.	.	8aJ	.
2G)	.	.	4d	.	.	4b-y	.	.	4dd	.	.	.	.	.	.	.	.	.	8b-yL	.
.	.	.	.	.	.	.	.	.	.	.	.	.	.	.	.	.	.	.	8ddJ	.
.	.	.	4B-y)	.	.	4g)	.	.	4ee)	.	.	.	.	.	.	.	.	.	8ccL	.
.	.	.	.	.	.	.	.	.	.	.	.	.	.	.	.	.	.	.	8b-yJ	.
2.F	ro,	.	2.c	ro,	.	2.a	ro,	.	2.ff	ro,	.	.	4r	.	4r	.	4r	.	2a	.
.	.	.	.	.	.	.	.	.	.	.	.	.	4A	.	4c	.	4f	.	.	.
.	.	.	.	.	.	.	.	.	.	.	.	.	4c	.	4f	.	4a	.	4r	.
=27:|!	=27:|!	=27:|!	=27:|!	=27:|!	=27:|!	=27:|!	=27:|!	=27:|!	=27:|!	=27:|!	=27:|!	=27:|!	=27:|!	=27:|!	=27:|!	=27:|!	=27:|!	=27:|!	=27:|!	=27:|!
2B-y	.	.	2d	In	.	2b-y	In	.	2ff	In	.	1.r	2B-y	.	2f	.	2b-y	.	8r	.
.	.	.	.	.	.	.	.	.	.	.	.	.	.	.	.	.	.	.	8ff	.
.	.	.	.	.	.	.	.	.	.	.	.	.	.	.	.	.	.	.	8ddL	.
.	.	.	.	.	.	.	.	.	.	.	.	.	.	.	.	.	.	.	8ffJ	.
4G	.	.	4d	chord-	.	4b-y	chord-	.	4gg	chord-	.	.	4r	.	4r	.	4r	.	4gg	.
2d	.	.	2f	is	.	2a	is	.	2ff	is	.	.	2.r	.	2.r	.	2.r	.	8aaL	.
.	.	.	.	.	.	.	.	.	.	.	.	.	.	.	.	.	.	.	8ffJ	.
.	.	.	.	.	.	.	.	.	.	.	.	.	.	.	.	.	.	.	4cc	.
4A	.	.	4a	et	.	4cc	et	.	4ee	et	.	.	.	.	.	.	.	.	8eeL	.
.	.	.	.	.	.	.	.	.	.	.	.	.	.	.	.	.	.	.	8ccJ	.
=28	=28	=28	=28	=28	=28	=28	=28	=28	=28	=28	=28	=28	=28	=28	=28	=28	=28	=28	=28	=28
(>4B-y	org-	.	(>4f	org-	.	(>4b-y	org-	.	(>4dd	org-	.	1.r	2.r	.	2.r	.	2.r	.	8ddL	.
.	.	.	.	.	.	.	.	.	.	.	.	.	.	.	.	.	.	.	8ffJ	.
4c)	.	.	4e)	.	.	4g)	.	.	4cc)	.	.	.	.	.	.	.	.	.	8ggL	.
.	.	.	.	.	.	.	.	.	.	.	.	.	.	.	.	.	.	.	8eeJ	.
4G	a-	.	4d	a-	.	4b-y	a-	.	4dd	a-	.	.	.	.	.	.	.	.	8ddL	.
.	.	.	.	.	.	.	.	.	.	.	.	.	.	.	.	.	.	.	8b-yJ	.
2C	no	.	2e	no	.	2g	no	.	2cc	no	.	.	4r	.	4r	.	4r	.	2cc	.
.	.	.	.	.	.	.	.	.	.	.	.	.	4C	.	4e	.	4g	.	.	.
4F	Be-	.	4c	Be-	.	4f	Be-	.	4a	Be-	.	.	4F	.	4c	.	4f	.	4r	.
=29	=29	=29	=29	=29	=29	=29	=29	=29	=29	=29	=29	=29	=29	=29	=29	=29	=29	=29	=29	=29
(>4E	ne-	.	(>4c	ne-	.	(<4g	ne-	.	2cc	ne-	.	1.r	4E	.	4c	.	4g	.	8r	.
.	.	.	.	.	.	.	.	.	.	.	.	.	.	.	.	.	.	.	8cc	.
4F)	.	.	4A)	.	.	4a)	.	.	.	.	.	.	4r	.	4r	.	4r	.	8ffL	.
.	.	.	.	.	.	.	.	.	.	.	.	.	.	.	.	.	.	.	8ccJ	.
4G	dic-	.	4d	dic-	.	4g	dic-	.	4b-y	dic-	.	.	4r	.	4r	.	4r	.	8b-yL	.
.	.	.	.	.	.	.	.	.	.	.	.	.	.	.	.	.	.	.	8ddJ	.
(>4D	a-	.	(>4d	a-	.	4f	a-	.	(<4a	a-	.	.	2.r	.	2.r	.	2.r	.	4ff	.
4E)	.	.	4G)	.	.	2c	mus	.	4g)	.	.	.	.	.	.	.	.	.	8ccL	.
.	.	.	.	.	.	.	.	.	.	.	.	.	.	.	.	.	.	.	8ddJ	.
4F	mus	.	4c	mus	.	.	.	.	4a	mus	.	.	.	.	.	.	.	.	8ccL	.
.	.	.	.	.	.	.	.	.	.	.	.	.	.	.	.	.	.	.	8aJ	.
=30	=30	=30	=30	=30	=30	=30	=30	=30	=30	=30	=30	=30	=30	=30	=30	=30	=30	=30	=30	=30
2BB-y	Do-	.	2B-y	Do-	.	2d	Do-	.	4f	Do-	.	2.r	2.r	.	2.r	.	2.r	.	(>16ddL	.
.	.	.	.	.	.	.	.	.	.	.	.	.	.	.	.	.	.	.	16cc	.
.	.	.	.	.	.	.	.	.	.	.	.	.	.	.	.	.	.	.	16b-y	.
.	.	.	.	.	.	.	.	.	.	.	.	.	.	.	.	.	.	.	16aJ	.
.	.	.	.	.	.	.	.	.	4d	.	.	.	.	.	.	.	.	.	16gL	.
.	.	.	.	.	.	.	.	.	.	.	.	.	.	.	.	.	.	.	16f	.
.	.	.	.	.	.	.	.	.	.	.	.	.	.	.	.	.	.	.	16e	.
.	.	.	.	.	.	.	.	.	.	.	.	.	.	.	.	.	.	.	16dJ)	.
4C	mi-	.	4G	mi-	.	4c	mi-	.	4e	mi-	.	.	.	.	.	.	.	.	4e	.
2.F	no.	.	2.A	no.	.	2.c	no.	.	2.f	no.	.	4r	4r	.	4r	.	4r	.	4f	.
.	.	.	.	.	.	.	.	.	.	.	.	4FF	8FL	.	8cL	.	8fL	.	8aL	.
.	.	.	.	.	.	.	.	.	.	.	.	.	8FJ	.	8cJ	.	8fJ	.	8aJ	.
.	.	.	.	.	.	.	.	.	.	.	.	4FF	8FL	.	8fL	.	8aL	.	8ccL	.
.	.	.	.	.	.	.	.	.	.	.	.	.	8FJ	.	8fJ	.	8aJ	.	8ccJ	.
=31	=31	=31	=31	=31	=31	=31	=31	=31	=31	=31	=31	=31	=31	=31	=31	=31	=31	=31	=31	=31
1.r	.	.	1.r	.	.	1.r	.	.	1.r	.	.	4C	4E	.	4c	.	4g	.	8ffL	.
.	.	.	.	.	.	.	.	.	.	.	.	.	.	.	.	.	.	.	8eeJ	.
.	.	.	.	.	.	.	.	.	.	.	.	4r	4F	.	4A	.	4a	.	8ddL	.
.	.	.	.	.	.	.	.	.	.	.	.	.	.	.	.	.	.	.	8ccJ	.
.	.	.	.	.	.	.	.	.	.	.	.	4r	4G	.	4d	.	4g	.	8b-yL	.
.	.	.	.	.	.	.	.	.	.	.	.	.	.	.	.	.	.	.	8gJ	.
.	.	.	.	.	.	.	.	.	.	.	.	4FF	4D	.	4d	.	4f	.	8aL	.
.	.	.	.	.	.	.	.	.	.	.	.	.	.	.	.	.	.	.	8b-yJ	.
.	.	.	.	.	.	.	.	.	.	.	.	2C	4E	.	4G	.	2c	.	8ccL	.
.	.	.	.	.	.	.	.	.	.	.	.	.	.	.	.	.	.	.	8b-yJ	.
.	.	.	.	.	.	.	.	.	.	.	.	.	4F	.	4c	.	.	.	8aL	.
.	.	.	.	.	.	.	.	.	.	.	.	.	.	.	.	.	.	.	8gJ	.
=32	=32	=32	=32	=32	=32	=32	=32	=32	=32	=32	=32	=32	=32	=32	=32	=32	=32	=32	=32	=32
1.r	.	.	1.r	.	.	1.r	.	.	1.r	.	.	4r	2BB-y	.	2B-y	.	2d	.	4f	.
.	.	.	.	.	.	.	.	.	.	.	.	4r	.	.	.	.	.	.	4d	.
.	.	.	.	.	.	.	.	.	.	.	.	4C	4C	.	4G	.	4c	.	4e	.
.	.	.	.	.	.	.	.	.	.	.	.	2.FF;	2.F;	.	2.A;	.	2.c;	.	2.f;	.
==	==	==	==	==	==	==	==	==	==	==	==	==	==	==	==	==	==	==	==	==
*-	*-	*-	*-	*-	*-	*-	*-	*-	*-	*-	*-	*-	*-	*-	*-	*-	*-	*-	*-	*-
!!!RDF**kern: > = above
!!!RDF**kern: < = below
